assets/icons/ic_lock.svg

<svg fill="none" height="24" viewBox="0 0 24 24" width="24" xmlns="http://www.w3.org/2000/svg" xmlns:xlink="http://www.w3.org/1999/xlink"><linearGradient id="a"><stop offset="0" stop-color="#c4c4c4"/><stop offset=".0001" stop-color="#18a0fb"/><stop offset="1" stop-color="#426bff"/></linearGradient><linearGradient id="b" gradientUnits="userSpaceOnUse" x1="12" x2="12" xlink:href="#a" y1="1" y2="23"/><linearGradient id="c" gradientUnits="userSpaceOnUse" x1="12" x2="12" xlink:href="#a" y1="14" y2="19"/><g clip-rule="evenodd" fill-rule="evenodd"><path d="m8 7c0-2.20914 1.79088-4 4-4 2.2091 0 4 1.79086 4 4v3h-8zm-2 3v-3c0-3.31371 2.68632-6 6-6 3.3137 0 6 2.68629 6 6v3h2c1.1046 0 2 .8954 2 2v9c0 1.1046-.8954 2-2 2h-16c-1.10457 0-2-.8954-2-2v-9c0-1.1046.89543-2 2-2zm11 2h-10-3v9h16v-9z" fill="url(#b)"/><path d="m12 14c.5523 0 1 .4477 1 1v3c0 .5523-.4477 1-1 1s-1-.4477-1-1v-3c0-.5523.4477-1 1-1z" fill="url(#c)"/></g></svg>

<svg width="24" height="24" viewBox="0 0 24 24" fill="none" xmlns="http://www.w3.org/2000/svg">
<path fill-rule="evenodd" clip-rule="evenodd" d="M8 7C8 4.79086 9.79088 3 12 3C14.2091 3 16 4.79086 16 7V10H8V7ZM6 10V7C6 3.68629 8.68632 1 12 1C15.3137 1 18 3.68629 18 7V10H20C21.1046 10 22 10.8954 22 12V21C22 22.1046 21.1046 23 20 23H4C2.89543 23 2 22.1046 2 21V12C2 10.8954 2.89543 10 4 10H6ZM17 12H7H4V21H20V12H17Z" fill="url(#paint0_linear_1067_9495)"/>
<path fill-rule="evenodd" clip-rule="evenodd" d="M12 14C12.5523 14 13 14.4477 13 15V18C13 18.5523 12.5523 19 12 19C11.4477 19 11 18.5523 11 18V15C11 14.4477 11.4477 14 12 14Z" fill="url(#paint1_linear_1067_9495)"/>
<defs>
<linearGradient id="paint0_linear_1067_9495" x1="12" y1="1" x2="12" y2="23" gradientUnits="userSpaceOnUse">
<stop stop-color="#C4C4C4"/>
<stop offset="0.0001" stop-color="#18A0FB"/>
<stop offset="1" stop-color="#426BFF"/>
</linearGradient>
<linearGradient id="paint1_linear_1067_9495" x1="12" y1="14" x2="12" y2="19" gradientUnits="userSpaceOnUse">
<stop stop-color="#C4C4C4"/>
<stop offset="0.0001" stop-color="#18A0FB"/>
<stop offset="1" stop-color="#426BFF"/>
</linearGradient>
</defs>
</svg>
